X:1
T:Salve Regina
T:2
T:Peter Philips, Paradisus Sacris 1628
T:ed. J. Quick
T:Salve Regina
T:©
T:©
T:©
C:Peter Philips, Paradisus Sacris 1628
Z:©
%%score 1 { ( 2 3 ) | ( 4 5 ) }
L:1/8
Q:1/4=100
M:2/2
K:C
V:1 treble nm="Voice"
V:2 treble nm="Organ" snm="Org."
V:3 treble 
V:4 bass 
V:5 bass 
V:1
 (d4 ^c4 | d4) A2 B2 | (^c2 d4 c2) | d4 z2 A2 | A2 A4 B2 | (c3 B/A/ G2 A2 | G4) F4 | z2 A2 A2 B2- | %8
w: Vi- *|* ta, dul-|ce- * *|do, et|spes no- stra|sal- * * * *|* ve,|et spes no-|
 B2 ^c2 (d3 =c/B/ | A2 B2 ^c2 d2- | d2 ^c2) d4 |] A4 _B4 | z2 =B2 c4 | z2 ^c2 d4 | z f2 c d4 | %15
w: * stra sal- * *||* * ve.|Ad te,|ad te,|ad te|su- spi- ra-|
 ^c4 z2 A2 | (Bc d4 ^c2) | d2 A2 (d>c_BA | _B4) A4 | z2 d4 ^c2 | d2 B2 c2 A2 | (B>cde/d/ ^c2 d2- | %22
w: mus, ge-|men- * * *|tes et flen- * * *|* tes|in hac|la- chry- ma- rum|val- * * * * * *|
 d2 ^c2) d4 || A8 | (G3 A _B4) | A2 dc _B4 | A4 z2 d2- | d2 c2 B2 A2 | (c3 B/A/ B4) | A4 z2 A2 | %30
w: * * le.|Et|Je- * *|sum, be- ne- di-|ctum fru-|* ctum ven- tris|tu- * * *|i no-|
 A2 A2 B2 B2 | c3 c A4 | z2 A2 (B3/2c/4d/4ed | ^c2 d4 c2) | d8 || (A4 ^G4 | A3 B c2 d2- | %37
w: bis post hoc ex-|i- li- um|o- sten- * * * *||de.|O _|_ _ _ _|
 dcBA B2 A2 | ^G2 A4) G2 | A8 |] %40
w: |* * pi-|a|
V:2
 d4 ^c4 | d4 A2 B2 | ^c2 d4 c2 | d4 z2 A2 | A2 A4 B2 | c3 B/A/ G2 A2 | G4 F4 | z2 A2 A2 B2- | %8
 B2 ^c2 d3 =c/B/ | A2 B2 ^c2 d2- | d2 ^c2 d4 |] A4 _B4 | z2 B2 c4 | z2 ^c2 d4 | z f2 c d4 | %15
 ^c4 z2 A2 | Bc d4 ^c2 | d2 A2 d>c_BA | _B4 A4 | z2 d4 ^c2 | d2 B2 c2 A2 | B>cde/d/ ^c2 d2- | %22
 d2 ^c2 d4 || A8 | G3 A _B4 | A2 dc _B4 | A4 z2 d2- | d2 c2 B2 A2 | c3 B/A/ B4 | A4 z2 A2 | %30
 A2 A2 B2 B2 | c3 c A4 | z2 A2 B3/2c/4d/4ed | ^c2 d4 c2 | d8 || A4 ^G4 | A3 B c2 d2- | dcBA B2 A2 | %38
 ^G2 A4 G2 | A8 |] %40
V:3
 F4 E4 | F3 G A2 GF | E2 F2 E4 | D4 F4 | C4 F4- | F2 ED E2 F2- | F2 E2 x4 | C4 F2 D2- | %8
 D2 G2 F2 D2- | D2 G2 F4 | E4 ^F4 |] ^F4 G4 | D4 E4 | E4 ^F4 | A3 G FE F2 | E4 C4 | D4 G4 | %17
 G2 ^F2 A2 D2 | DCDE ^F4 | F3 G A2 E2 | A2 G4 F2 | D2 G4 F2 | E4 ^F4 || x8 | x8 | x8 | z4 ^F3 G | %27
 A4 G2 F2 | E2 A4 ^G2 | A4 ^C4 | D2 ^F2 G3 =F | E2 G4 ^F2 | A2 D2 G2 G2 | G2 F2 E4 | ^F8 || %35
 C4 B,4 | ^C3 D E2 F2- | FEDC D2 D2 | D2 C2 B,4 | ^C8 |] %40
V:4
 x8 | x8 | x8 | x8 | x8 | x8 | x8 | x8 | x8 | x8 | x8 |] D,4 G,,4 | G,,4 C,4 | A,,4 D,4 | %14
 D,2 F,2 D,4 | A,,4 A,4 | G,3 F, E,4 | D,3 E, ^F,2 G,2 | G,,4 D,4 | D,3 E, F,G, A,2 | %20
 ^F,2 G,2 E,2 =F,2 | G,4 A,4 | A,4 D,4 || ^F,8 | _B,3 A, G,2 G,2 | G,2 ^F,2 G,4 | ^F,4 D,3 E, | %27
 ^F,4 G,2 D,2 | A,,4 E,4 | A,,4 A,,4 | D,4 G,>F,E,D, | C,4 D,4 | ^F,4 G,4 | A,8 | D,8 || A,4 E,4 | %36
 A,4 A,2 D,2- | D,2 G,4 F,2 | E,8 | A,,8 |] %40
V:5
 D,4 A,,4 | D,3 E, ^F,2 G,2 | A,8 | D,4 D,4 | F,6 D,2 | C,6 A,,2 | C,4 F,,4 | F,4 D,2 G,2- | %8
 G,2 E,2 D,3 E, | F,2 G,2 A,4- | A,4 D,4 |] x8 | x8 | x8 | x8 | x8 | x8 | x8 | x8 | x8 | x8 | x8 | %22
 x8 || D,8 | G,,4 G,,4 | D,4 G,,4 | D,4 z4 | x8 | x8 | x8 | x8 | x8 | x8 | x8 | x8 || x8 | x8 | %37
 x8 | x8 | x8 |] %40

